web-components-icons/ea00-chart/SVG/bar-stacked.svg

<?xml version="1.0" encoding="utf-8"?>
<!-- Generator: Adobe Illustrator 24.2.0, SVG Export Plug-In . SVG Version: 6.00 Build 0)  -->
<svg version="1.1" id="Layer_1" xmlns="http://www.w3.org/2000/svg" xmlns:xlink="http://www.w3.org/1999/xlink" x="0px" y="0px"
	 width="512px" height="512px" viewBox="0 0 512 512" xml:space="preserve">
<path d="M64,448v-64h352V224H64v-32h256V32H32v448h448v-32H64z M64,64h96v96H64V64z M256,256v96H64v-96H256z"/>
</svg>

<svg xmlns="http://www.w3.org/2000/svg" viewBox="0 0 512 512"><title>bar-stacked</title><g id="bar_stacked" data-name="bar stacked"><path d="M64,448V384H416V224H64V192H320V32H32V480H480V448ZM64,64h96v96H64ZM256,256v96H64V256Z"/></g></svg>
